X: 25294
T: Man Of The House, The
R: reel
M: 4/4
K: Eminor
|:E2B,E GABG|E2AG FDAD|E2B,E GBBe|1 dBAA BAGF:|2 dBAA BEEe||
e2ge f2af|gfed edBd|e2ge f2af|gfed Beed|
e2ge f2af|gfed edB2|b2af gefd|eBBA GAFA||

